X: 1
T: Road To Lisdoonvarna, The
M: 4/4
L: 1/8
R: reel
K: Dmix
DA A/A/A ABcA|GE E/E/E cEGE|DA A/A/A ABcA|GBAG FDDE|
DA A/A/A ABcA|GE E/E/E cEGE|DA A/A/A ABcA|GBAG FDDA||
defd cA A/A/A|BG G/G/G cA A/A/A|defd cAAF|GBAG FDDA|
defd cA A/A/A|BG G/G/G cA A/A/A|defd cAAF|GBAG FGEF||
